modules/hawcons-stroke/icons/icon-32-award.svg

<?xml version="1.0" encoding="UTF-8" standalone="no"?>
<svg width="32px" height="32px" viewBox="0 0 32 32" version="1.1" xmlns="http://www.w3.org/2000/svg" xmlns:xlink="http://www.w3.org/1999/xlink" xmlns:sketch="http://www.bohemiancoding.com/sketch/ns">
    <!-- Generator: Sketch 3.0.3 (7891) - http://www.bohemiancoding.com/sketch -->
    <title>icon 32 award</title>
    <desc>Created with Sketch.</desc>
    <defs></defs>
    <g id="Page-1" stroke="none" stroke-width="1" fill="none" fill-rule="evenodd" sketch:type="MSPage">
        <g id="icon-32-award" sketch:type="MSArtboardGroup" fill="#929292">
            <path d="M10,16.7083195 L10,31 L16,25 L22,31 L22,16.7083195 C23.8412481,15.0603579 25,12.6654994 25,10 C25,5.02943725 20.9705627,1 16,1 C11.0294373,1 7,5.02943725 7,10 C7,12.6654994 8.15875192,15.0603579 10,16.7083195 L10,16.7083195 L10,16.7083195 Z M11,17.484451 L11,28.5999756 L16,23.5999756 L21,28.5999756 L21,17.484451 C19.569902,18.4417283 17.8501466,19 16,19 C14.1498534,19 12.430098,18.4417283 11,17.484451 L11,17.484451 L11,17.484451 Z M16,18 C20.418278,18 24,14.418278 24,10 C24,5.581722 20.418278,2 16,2 C11.581722,2 8,5.581722 8,10 C8,14.418278 11.581722,18 16,18 L16,18 Z M16,12.6923077 L12.5,15 L14,11 L11,9 L14.5,9 L16,5 L17.5,9 L21,9 L18,11 L19.5,15 L16,12.6923077 L16,12.6923077 Z" id="award" sketch:type="MSShapeGroup"></path>
        </g>
    </g>
</svg>

<svg width="32" height="32" xmlns="http://www.w3.org/2000/svg"><path d="M10 16.708V31l6-6 6 6V16.708a9 9 0 1 0-12 0zm1 .776V28.6l5-5 5 5V17.484A8.958 8.958 0 0 1 16 19c-1.85 0-3.57-.558-5-1.516zM16 18a8 8 0 1 0 0-16 8 8 0 0 0 0 16zm0-5.308L12.5 15l1.5-4-3-2h3.5L16 5l1.5 4H21l-3 2 1.5 4-3.5-2.308z" fill="#929292" fill-rule="evenodd"/></svg>
